src/icons/svg/github.svg

<svg width="20" height="20" viewBox="0 0 20 20" fill="none" xmlns="http://www.w3.org/2000/svg">
<path fill-rule="evenodd" clip-rule="evenodd" d="M10.0008 1.05078C14.9439 1.05078 18.9508 5.15876 18.9508 10.2271C18.9508 14.2806 16.3893 17.7192 12.8352 18.9337C12.3815 19.0241 12.2204 18.7375 12.2204 18.4932C12.2204 18.1907 12.2311 17.2027 12.2311 15.9747C12.2311 15.1191 11.9447 14.5607 11.6234 14.2761C13.6166 14.0487 15.7109 13.2727 15.7109 9.74818C15.7109 8.74578 15.3636 7.92779 14.789 7.28518C14.8821 7.05338 15.1891 6.12001 14.7013 4.85627C14.7013 4.85627 13.9513 4.61039 12.2428 5.79716C11.5276 5.594 10.7615 5.49177 10.0008 5.48819C9.24003 5.49177 8.47481 5.594 7.7606 5.79716C6.05025 4.61039 5.29845 4.85627 5.29845 4.85627C4.81247 6.12001 5.11945 7.05338 5.21164 7.28518C4.63973 7.92779 4.28979 8.74578 4.28979 9.74818C4.28979 13.2637 6.37961 14.0517 8.36741 14.2835C8.11144 14.5126 7.87963 14.9168 7.79908 15.5102C7.28893 15.7447 5.99297 16.1505 5.19463 14.748C5.19463 14.748 4.72118 13.8663 3.8226 13.8019C3.8226 13.8019 2.94997 13.7903 3.76174 14.3595C3.76174 14.3595 4.34796 14.6414 4.75519 15.702C4.75519 15.702 5.28055 17.3398 7.77044 16.7849C7.77492 17.5519 7.78297 18.2748 7.78297 18.4932C7.78297 18.7358 7.61829 19.0196 7.17168 18.9346C3.61495 17.7219 1.05078 14.2815 1.05078 10.2271C1.05078 5.15876 5.05859 1.05078 10.0008 1.05078Z" fill="#19191C"/>
</svg>

<svg xmlns="http://www.w3.org/2000/svg" width="20" height="20" fill="none"><path fill="#19191C" fill-rule="evenodd" d="M10 1.05c4.944 0 8.95 4.109 8.95 9.177 0 4.054-2.56 7.492-6.115 8.707-.453.09-.615-.197-.615-.44 0-.303.011-1.291.011-2.52 0-.855-.286-1.413-.608-1.698 1.994-.227 4.088-1.003 4.088-4.528 0-1.002-.347-1.82-.922-2.463.093-.232.4-1.165-.088-2.429 0 0-.75-.246-2.458.941A8.4 8.4 0 0 0 10 5.488a8.4 8.4 0 0 0-2.24.31c-1.71-1.188-2.463-.942-2.463-.942-.486 1.264-.179 2.197-.086 2.43-.572.642-.922 1.46-.922 2.462 0 3.516 2.09 4.304 4.077 4.536-.256.229-.487.633-.568 1.226-.51.235-1.806.64-2.604-.762 0 0-.474-.882-1.372-.946 0 0-.873-.012-.061.558 0 0 .586.281.993 1.342 0 0 .526 1.638 3.015 1.083.005.767.013 1.49.013 1.708 0 .243-.165.527-.611.442-3.557-1.213-6.121-4.653-6.121-8.708 0-5.068 4.008-9.176 8.95-9.176" clip-rule="evenodd"/></svg>
